material/.icons/material/airplane-off.svg

<svg xmlns="http://www.w3.org/2000/svg" viewBox="0 0 24 24"><path d="M3.15 5.27l4.98 4.99L2.15 14v2l8-2.5V19l-2 1.5V22l3.5-1 3.5 1v-1.5l-2-1.5v-3.73L18.87 21l1.28-1.27L4.42 4m8.73 5V3.5a1.5 1.5 0 00-1.5-1.5 1.5 1.5 0 00-1.5 1.5v3.68L17.97 15l3.18 1v-2l-8-5z"/></svg>

<?xml version="1.0" encoding="UTF-8"?><!DOCTYPE svg PUBLIC "-//W3C//DTD SVG 1.1//EN" "http://www.w3.org/Graphics/SVG/1.1/DTD/svg11.dtd"><svg xmlns="http://www.w3.org/2000/svg" xmlns:xlink="http://www.w3.org/1999/xlink" version="1.1" id="mdi-airplane-off" width="24" height="24" viewBox="0 0 24 24"><path d="M3.15,5.27L8.13,10.26L2.15,14V16L10.15,13.5V19L8.15,20.5V22L11.65,21L15.15,22V20.5L13.15,19V15.27L18.87,21L20.15,19.73L4.42,4M13.15,9V3.5A1.5,1.5 0 0,0 11.65,2A1.5,1.5 0 0,0 10.15,3.5V7.18L17.97,15L21.15,16V14L13.15,9Z" /></svg>
